CSETWebApi/CSETWeb_Api/CSETWeb_ApiCore/Diagram/src/main/webapp/img/lib/mscae/Storage_sync_service.svg

<svg xmlns="http://www.w3.org/2000/svg" xmlns:xlink="http://www.w3.org/1999/xlink" width="49.8" height="49.9"><path d="M43.247 13.88c.372-1.027.577-2.12.577-3.257C43.824 4.756 38.473 0 31.872 0c-5.153 0-9.532 2.904-11.2 6.968-1.518-1.553-3.757-2.545-6.255-2.545-4.58 0-8.31 3.33-8.31 7.44 0 .72.116 1.4.32 2.034C2.678 15.13 0 18.355 0 22.13c0 4.837 4.38 8.77 9.792 8.77h30.213c5.426 0 9.795-3.927 9.795-8.77.013-3.82-2.727-7.057-6.553-8.25z" fill="#59b4d9"/><g fill="#fff"><path d="M8.35 19.86a7.63 7.63 0 0 1-.364-2.321c0-4.694 4.258-8.494 9.485-8.494 2.85 0 5.407 1.133 7.14 2.906 1.916-4.638 6.914-7.954 12.797-7.954a15.15 15.15 0 0 1 4.332.635C39.586 1.836 35.972 0 31.873 0c-5.153 0-9.532 2.904-11.2 6.968-1.518-1.553-3.758-2.545-6.255-2.545-4.58 0-8.31 3.33-8.31 7.44 0 .72.116 1.4.32 2.034C2.678 15.13 0 18.355 0 22.13c0 1.656.523 3.2 1.416 4.523.948-3.142 3.558-5.678 6.933-6.793z" opacity=".2"/><path d="M37.9 15.4l-22-.5v-2.562a.75.75 0 0 0-1.252-.557L7.905 17.4l6.743 5.62c.483.433 1.252.09 1.252-.558V19.9h5v27.122a1.89 1.89 0 0 0 1.901 1.878H37.9a1.89 1.89 0 0 0 1.901-1.878V17.278a1.89 1.89 0 0 0-1.901-1.878zm-17 .5h.23a1.84 1.84 0 0 0-.23.878V15.9z" opacity=".8"/></g><path d="M39.9 48.022a1.89 1.89 0 0 1-1.901 1.878H22.8a1.89 1.89 0 0 1-1.901-1.878V17.778a1.89 1.89 0 0 1 1.901-1.878H38a1.89 1.89 0 0 1 1.901 1.878v30.244z" fill="#7a7a7a"/><use xlink:href="#B" fill="#1e1e1e"/><circle cx="25.582" cy="44.293" r="1.607" fill="#b8d432"/><use xlink:href="#B" y="-7" fill="#1e1e1e"/><circle cx="25.582" cy="37.293" r="1.607" fill="#b8d432"/><path d="M22.95 21.4c0-1.322 1.075-2.393 2.4-2.393h9.997c1.326 0 2.4 1.072 2.4 2.393s-1.075 2.393-2.4 2.393H25.35c-1.326.001-2.4-1.07-2.4-2.393z" fill="#1e1e1e"/><circle cx="25.582" cy="21.4" r="1.607" fill="#b8d432"/><path d="M28.9 31.9h-8.05v-4h-.95l1-1h8v-2.56a.75.75 0 0 1 1.252-.557l6.743 5.62-6.743 5.62c-.483.433-1.252.1-1.252-.56V31.9z" opacity=".9" fill="#fff"/><path d="M35.35 29.4l-5.5-4.5v3h-11v3h11v3z" fill="#59b4d9"/><path d="M9.4 17.4l5.5 4.5v-3h11v-3h-11v-3z" fill="#7a7a7a"/><defs ><path id="B" d="M22.95 44.293c0-1.32 1.075-2.393 2.4-2.393h9.997c1.326 0 2.4 1.072 2.4 2.393s-1.075 2.393-2.4 2.393H25.35c-1.326 0-2.4-1.07-2.4-2.393z"/></defs></svg>

<?xml version="1.0" encoding="UTF-8" standalone="no"?>
<svg
   xmlns:dc="http://purl.org/dc/elements/1.1/"
   xmlns:cc="http://creativecommons.org/ns#"
   xmlns:rdf="http://www.w3.org/1999/02/22-rdf-syntax-ns#"
   xmlns:svg="http://www.w3.org/2000/svg"
   xmlns="http://www.w3.org/2000/svg"
   xmlns:sodipodi="http://sodipodi.sourceforge.net/DTD/sodipodi-0.dtd"
   xmlns:inkscape="http://www.inkscape.org/namespaces/inkscape"
   version="1.1"
   id="Layer_1"
   x="0px"
   y="0px"
   width="49.800045"
   height="49.900002"
   viewBox="0 0 49.800045 49.900002"
   enable-background="new 0 0 50 50"
   xml:space="preserve"
   inkscape:version="0.91 r13725"
   sodipodi:docname="storage_sync_service.svg"><metadata
     id="metadata33"><rdf:RDF><cc:Work
         rdf:about=""><dc:format>image/svg+xml</dc:format><dc:type
           rdf:resource="http://purl.org/dc/dcmitype/StillImage" /><dc:title></dc:title></cc:Work></rdf:RDF></metadata><defs
     id="defs31" /><sodipodi:namedview
     pagecolor="#ffffff"
     bordercolor="#666666"
     borderopacity="1"
     objecttolerance="10"
     gridtolerance="10"
     guidetolerance="10"
     inkscape:pageopacity="0"
     inkscape:pageshadow="2"
     inkscape:window-width="1920"
     inkscape:window-height="1018"
     id="namedview29"
     showgrid="false"
     fit-margin-top="0"
     fit-margin-left="0"
     fit-margin-right="0"
     fit-margin-bottom="0"
     inkscape:zoom="16.059062"
     inkscape:cx="24.9"
     inkscape:cy="25"
     inkscape:window-x="-8"
     inkscape:window-y="-8"
     inkscape:window-maximized="1"
     inkscape:current-layer="Layer_1" /><path
     d="M 43.247,13.881 C 43.619,12.854 43.824,11.761 43.824,10.624 43.824,4.756 38.473,0 31.872,0 26.719,0 22.34,2.904 20.662,6.968 19.144,5.415 16.905,4.423 14.407,4.423 9.828,4.423 6.098,7.752 6.098,11.863 6.098,12.583 6.214,13.253 6.417,13.897 2.678,15.131 0,18.355 0,22.13 0,26.967 4.38,30.9 9.792,30.9 L 40.005,30.9 C 45.431,30.9 49.8,26.973 49.8,22.13 49.813,18.31 47.073,15.073 43.247,13.881 Z"
     id="path3"
     inkscape:connector-curvature="0"
     style="fill:#59b4d9" /><path
     enable-background="new    "
     d="M 8.349,19.86 C 8.117,19.125 7.985,18.36 7.985,17.539 7.985,12.845 12.243,9.045 17.47,9.045 20.321,9.045 22.877,10.178 24.61,11.951 26.526,7.313 31.524,3.997 37.407,3.997 38.923,3.997 40.376,4.226 41.739,4.632 39.586,1.836 35.972,0 31.873,0 26.72,0 22.341,2.904 20.663,6.968 19.145,5.415 16.905,4.423 14.408,4.423 9.829,4.423 6.099,7.752 6.099,11.863 6.099,12.583 6.215,13.253 6.418,13.897 2.678,15.131 0,18.355 0,22.13 0,23.786 0.523,25.33 1.416,26.653 2.364,23.511 4.974,20.975 8.349,19.86 Z"
     id="path5"
     inkscape:connector-curvature="0"
     style="opacity:0.2;fill:#ffffff" /><path
     enable-background="new    "
     d="M 37.899,15.4 15.9,14.9 15.9,12.338 C 15.9,11.689 15.131,11.346 14.648,11.781 L 7.905,17.4 14.648,23.019 C 15.131,23.452 15.9,23.11 15.9,22.461 L 15.9,19.9 20.9,19.9 20.9,47.022 C 20.9,48.059 21.751,48.9 22.801,48.9 L 37.899,48.9 C 38.949,48.9 39.8,48.059 39.8,47.022 L 39.8,17.278 C 39.8,16.241 38.949,15.4 37.899,15.4 Z M 20.9,15.9 21.13,15.9 C 20.988,16.163 20.9,16.459 20.9,16.778 L 20.9,15.9 Z"
     id="path7"
     inkscape:connector-curvature="0"
     style="opacity:0.8;fill:#ffffff" /><path
     d="M 39.9,48.022 C 39.9,49.059 39.049,49.9 37.999,49.9 L 22.801,49.9 C 21.751,49.9 20.9,49.059 20.9,48.022 L 20.9,17.778 C 20.9,16.741 21.751,15.9 22.801,15.9 L 37.999,15.9 C 39.049,15.9 39.9,16.741 39.9,17.778 L 39.9,48.022 Z"
     id="path9"
     inkscape:connector-curvature="0"
     style="fill:#7a7a7a" /><path
     d="M 22.95,44.293 C 22.95,42.972 24.025,41.9 25.351,41.9 L 35.348,41.9 C 36.674,41.9 37.749,42.972 37.749,44.293 L 37.749,44.293 C 37.749,45.614 36.674,46.686 35.348,46.686 L 25.351,46.686 C 24.025,46.686 22.95,45.615 22.95,44.293 L 22.95,44.293 Z"
     id="path11"
     inkscape:connector-curvature="0"
     style="fill:#1e1e1e" /><circle
     cx="25.581999"
     cy="44.293003"
     r="1.607"
     id="circle13"
     style="fill:#b8d432" /><path
     d="M 22.95,37.293 C 22.95,35.972 24.025,34.9 25.351,34.9 L 35.348,34.9 C 36.674,34.9 37.749,35.972 37.749,37.293 L 37.749,37.293 C 37.749,38.614 36.674,39.686 35.348,39.686 L 25.351,39.686 C 24.025,39.686 22.95,38.615 22.95,37.293 L 22.95,37.293 Z"
     id="path15"
     inkscape:connector-curvature="0"
     style="fill:#1e1e1e" /><circle
     cx="25.581999"
     cy="37.293003"
     r="1.607"
     id="circle17"
     style="fill:#b8d432" /><path
     d="M 22.95,21.4 C 22.95,20.078 24.025,19.007 25.351,19.007 L 35.348,19.007 C 36.674,19.007 37.749,20.079 37.749,21.4 L 37.749,21.4 C 37.749,22.722 36.674,23.793 35.348,23.793 L 25.351,23.793 C 24.025,23.794 22.95,22.722 22.95,21.4 L 22.95,21.4 Z"
     id="path19"
     inkscape:connector-curvature="0"
     style="fill:#1e1e1e" /><circle
     cx="25.581999"
     cy="21.4"
     r="1.607"
     id="circle21"
     style="fill:#b8d432" /><path
     d="M 28.9,31.9 20.85,31.9 20.85,27.9 19.9,27.9 20.9,26.9 28.9,26.9 28.9,24.339 C 28.9,23.69 29.669,23.347 30.152,23.782 L 36.895,29.401 30.152,35.02 C 29.669,35.453 28.9,35.11 28.9,34.461 L 28.9,31.9 Z"
     id="path23"
     inkscape:connector-curvature="0"
     style="opacity:0.9;fill:#ffffff" /><polygon
     points="35.45,29.5 29.95,25 29.95,28 18.95,28 18.95,31 29.95,31 29.95,34 "
     id="polygon25"
     style="fill:#59b4d9"
     transform="translate(-0.1,-0.1)" /><polygon
     points="9.5,17.5 15,22 15,19 26,19 26,16 15,16 15,13 "
     id="polygon27"
     style="fill:#7a7a7a"
     transform="translate(-0.1,-0.1)" /></svg>
